svgs/regular/clipboard.svg

<svg xmlns="http://www.w3.org/2000/svg" viewBox="0 0 384 512"><!-- Font Awesome Pro 6.0.0-alpha2 by @fontawesome - https://fontawesome.com License - https://fontawesome.com/license (Commercial License) --><path d="M320 64H270.387C262.973 27.484 230.701 0 192 0S121.027 27.484 113.613 64H64C28.654 64 0 92.656 0 128V448C0 483.344 28.654 512 64 512H320C355.346 512 384 483.344 384 448V128C384 92.656 355.346 64 320 64ZM192 48C205.234 48 216 58.766 216 72S205.234 96 192 96S168 85.234 168 72S178.766 48 192 48ZM336 448C336 456.82 328.822 464 320 464H64C55.178 464 48 456.82 48 448V128C48 119.18 55.178 112 64 112H82.264C80.932 117.141 80 122.441 80 128V144C80 152.836 87.164 160 96 160H288C296.836 160 304 152.836 304 144V128C304 122.441 303.068 117.141 301.736 112H320C328.822 112 336 119.18 336 128V448Z"/></svg>

<svg xmlns="http://www.w3.org/2000/svg" viewBox="0 0 384 512"><!--! Font Awesome Pro 6.0.0-alpha3 by @fontawesome - https://fontawesome.com License - https://fontawesome.com/license (Commercial License) --><path d="M320 64h-49.61C262.1 27.48 230.7 0 192 0S121 27.48 113.6 64H64C28.65 64 0 92.66 0 128v320c0 35.34 28.65 64 64 64h256c35.35 0 64-28.66 64-64V128C384 92.66 355.3 64 320 64zM192 48c13.23 0 24 10.77 24 24S205.2 96 192 96S168 85.23 168 72S178.8 48 192 48zM336 448c0 8.82-7.178 16-16 16H64c-8.822 0-16-7.18-16-16V128c0-8.82 7.178-16 16-16h18.26C80.93 117.1 80 122.4 80 128v16C80 152.8 87.16 160 96 160h192c8.836 0 16-7.164 16-16V128c0-5.559-.9316-10.86-2.264-16H320c8.822 0 16 7.18 16 16V448z"/></svg>
